X:519
T:Polska # 519
T: efter fadern
Q: 110
M:3/4
L:1/16
K: G
A3G F2G2 A2B2| (cB)AB G2G2 G4| G3A BABc d3B| dedc A2F2 F4:|
|:[K:D] A3d d2f2 agfg| egec ABcd efge| e2d2 d2f2 agfg| egec ABcd
efga| b2bg a2af gfga| bgec c2d2 d4:|

